X:86
T:Dunmore Lasses
Z: id:dc-reel-80
M:C
L:1/8
K:E Minor
D|EDEF GFGA|Bee2 Bee2|EDEF GABG|AdBA GEFD|!
EDEF GFGA|Beed e2ef|g2fg edBG|AdBA GEE:|!
f|gfeg fedA|Bee2 Beef|gfeg fedB|AdBA GEEf|!
gfeg fedA|Beed e2ef|g2fg edBG|AdBA GEE:|!

